; G-code generated by Unity Laser Engraver Emulator
; Date: 2025-05-06 13:50:27
; Engraving area: 120mm x 120mm
G90
G21
M4 S0
; Vertical scan G-code generation
; Dimensions: 160x160
G90
G21
M4
S0
G0 X0.000 Y0.000
G1 X0.000 Y0.000 F10000
G1 X0.000 Y0.100 F10000
G1 X0.000 Y0.200 F10000
G1 X0.000 Y0.300 F10000
G1 X0.000 Y0.400 F10000
G1 X0.000 Y0.500 F10000
G1 X0.000 Y0.600 F10000
G1 X0.000 Y0.700 F10000
G1 X0.000 Y0.800 F10000
G1 X0.000 Y0.900 F10000
G1 X0.000 Y1.000 F10000
G1 X0.000 Y1.100 F10000
G1 X0.000 Y1.200 F10000
G1 X0.000 Y1.300 F10000
G1 X0.000 Y1.400 F10000
G1 X0.000 Y1.500 F10000
G1 X0.000 Y1.600 F10000
G1 X0.000 Y1.700 F10000
G1 X0.000 Y1.800 F10000
G1 X0.000 Y1.900 F10000
G1 X0.000 Y2.000 F10000
G1 X0.000 Y2.100 F10000
G1 X0.000 Y2.200 F10000
G1 X0.000 Y2.300 F10000
G1 X0.000 Y2.400 F10000
G1 X0.000 Y2.500 F10000
G1 X0.000 Y2.600 F10000
G1 X0.000 Y2.700 F10000
G1 X0.000 Y2.800 F10000
G1 X0.000 Y2.900 F10000
G1 X0.000 Y3.000 F10000
G1 X0.000 Y3.100 F10000
G1 X0.000 Y3.200 F10000
G1 X0.000 Y3.300 F10000
G1 X0.000 Y3.400 F10000
G1 X0.000 Y3.500 F10000
G1 X0.000 Y3.600 F10000
G1 X0.000 Y3.700 F10000
G1 X0.000 Y3.800 F10000
G1 X0.000 Y3.900 F10000
G1 X0.000 Y4.000 F10000
G1 X0.000 Y4.100 F10000
G1 X0.000 Y4.200 F10000
G1 X0.000 Y4.300 F10000
G1 X0.000 Y4.400 F10000
G1 X0.000 Y4.500 F10000
G1 X0.000 Y4.600 F10000
G1 X0.000 Y4.700 F10000
G1 X0.000 Y4.800 F10000
G1 X0.000 Y4.900 F10000
G1 X0.000 Y5.000 F10000
G1 X0.000 Y5.100 F10000
G1 X0.000 Y5.200 F10000
G1 X0.000 Y5.300 F10000
G1 X0.000 Y5.400 F10000
G1 X0.000 Y5.500 F10000
G1 X0.000 Y5.600 F10000
G1 X0.000 Y5.700 F10000
G1 X0.000 Y5.800 F10000
G1 X0.000 Y5.900 F10000
G1 X0.000 Y6.000 F10000
G1 X0.000 Y6.100 F10000
G1 X0.000 Y6.200 F10000
G1 X0.000 Y6.300 F10000
G1 X0.000 Y6.400 F10000
G1 X0.000 Y6.500 F10000
G1 X0.000 Y6.600 F10000
G1 X0.000 Y6.700 F10000
G1 X0.000 Y6.800 F10000
G1 X0.000 Y6.900 F10000
G1 X0.000 Y7.000 F10000
G1 X0.000 Y7.100 F10000
G1 X0.000 Y7.200 F10000
G1 X0.000 Y7.300 F10000
G1 X0.000 Y7.400 F10000
G1 X0.000 Y7.500 F10000
G1 X0.000 Y7.600 F10000
G1 X0.000 Y7.700 F10000
G1 X0.000 Y7.800 F10000
G1 X0.000 Y7.900 F10000
G1 X0.000 Y8.000 F10000
G1 X0.000 Y8.100 F10000
G1 X0.000 Y8.200 F10000
G1 X0.000 Y8.300 F10000
G1 X0.000 Y8.400 F10000
G1 X0.000 Y8.500 F10000
G1 X0.000 Y8.600 F10000
G1 X0.000 Y8.700 F10000
G1 X0.000 Y8.800 F10000
G1 X0.000 Y8.900 F10000
G1 X0.000 Y9.000 F10000
G1 X0.000 Y9.100 F10000
G1 X0.000 Y9.200 F10000
G1 X0.000 Y9.300 F10000
G1 X0.000 Y9.400 F10000
G1 X0.000 Y9.500 F10000
G1 X0.000 Y9.600 F10000
G1 X0.000 Y9.700 F10000
G1 X0.000 Y9.800 F10000
G1 X0.000 Y9.900 F10000
G1 X0.000 Y10.000 F10000
G1 X0.000 Y10.100 F10000
G1 X0.000 Y10.200 F10000
G1 X0.000 Y10.300 F10000
G1 X0.000 Y10.400 F10000
G1 X0.000 Y10.500 F10000
G1 X0.000 Y10.600 F10000
G1 X0.000 Y10.700 F10000
G1 X0.000 Y10.800 F10000
G1 X0.000 Y10.900 F10000
G1 X0.000 Y11.000 F10000
G1 X0.000 Y11.100 F10000
G1 X0.000 Y11.200 F10000
G1 X0.000 Y11.300 F10000
G1 X0.000 Y11.400 F10000
G1 X0.000 Y11.500 F10000
G1 X0.000 Y11.600 F10000
G1 X0.000 Y11.700 F10000
G1 X0.000 Y11.800 F10000
G1 X0.000 Y11.900 F10000
G1 X0.000 Y12.000 F10000
G1 X0.000 Y12.100 F10000
G1 X0.000 Y12.200 F10000
G1 X0.000 Y12.300 F10000
G1 X0.000 Y12.400 F10000
G1 X0.000 Y12.500 F10000
G1 X0.000 Y12.600 F10000
G1 X0.000 Y12.700 F10000
G1 X0.000 Y12.800 F10000
G1 X0.000 Y12.900 F10000
G1 X0.000 Y13.000 F10000
G1 X0.000 Y13.100 F10000
G1 X0.000 Y13.200 F10000
G1 X0.000 Y13.300 F10000
G1 X0.000 Y13.400 F10000
G1 X0.000 Y13.500 F10000
G1 X0.000 Y13.600 F10000
G1 X0.000 Y13.700 F10000
G1 X0.000 Y13.800 F10000
G1 X0.000 Y13.900 F10000
G1 X0.000 Y14.000 F10000
G1 X0.000 Y14.100 F10000
G1 X0.000 Y14.200 F10000
G1 X0.000 Y14.300 F10000
G1 X0.000 Y14.400 F10000
G1 X0.000 Y14.500 F10000
G1 X0.000 Y14.600 F10000
G1 X0.000 Y14.700 F10000
G1 X0.000 Y14.800 F10000
G1 X0.000 Y14.900 F10000
G1 X0.000 Y15.000 F10000
G1 X0.000 Y15.100 F10000
G1 X0.000 Y15.200 F10000
G1 X0.000 Y15.300 F10000
G1 X0.000 Y15.400 F10000
G1 X0.000 Y15.500 F10000
G1 X0.000 Y15.600 F10000
G1 X0.000 Y15.700 F10000
G1 X0.000 Y15.800 F10000
G1 X0.000 Y15.900 F10000
S0
G0 X0.100 Y15.900
G1 X0.100 Y15.900 F10000
G1 X0.100 Y15.800 F10000
G1 X0.100 Y15.700 F10000
G1 X0.100 Y15.600 F10000
G1 X0.100 Y15.500 F10000
G1 X0.100 Y15.400 F10000
G1 X0.100 Y15.300 F10000
G1 X0.100 Y15.200 F10000
G1 X0.100 Y15.100 F10000
G1 X0.100 Y15.000 F10000
G1 X0.100 Y14.900 F10000
G1 X0.100 Y14.800 F10000
G1 X0.100 Y14.700 F10000
G1 X0.100 Y14.600 F10000
G1 X0.100 Y14.500 F10000
G1 X0.100 Y14.400 F10000
G1 X0.100 Y14.300 F10000
G1 X0.100 Y14.200 F10000
G1 X0.100 Y14.100 F10000
G1 X0.100 Y14.000 F10000
G1 X0.100 Y13.900 F10000
G1 X0.100 Y13.800 F10000
G1 X0.100 Y13.700 F10000
G1 X0.100 Y13.600 F10000
G1 X0.100 Y13.500 F10000
G1 X0.100 Y13.400 F10000
G1 X0.100 Y13.300 F10000
G1 X0.100 Y13.200 F10000
G1 X0.100 Y13.100 F10000
G1 X0.100 Y13.000 F10000
G1 X0.100 Y12.900 F10000
G1 X0.100 Y12.800 F10000
G1 X0.100 Y12.700 F10000
G1 X0.100 Y12.600 F10000
G1 X0.100 Y12.500 F10000
G1 X0.100 Y12.400 F10000
G1 X0.100 Y12.300 F10000
G1 X0.100 Y12.200 F10000
G1 X0.100 Y12.100 F10000
G1 X0.100 Y12.000 F10000
G1 X0.100 Y11.900 F10000
G1 X0.100 Y11.800 F10000
G1 X0.100 Y11.700 F10000
G1 X0.100 Y11.600 F10000
G1 X0.100 Y11.500 F10000
G1 X0.100 Y11.400 F10000
G1 X0.100 Y11.300 F10000
G1 X0.100 Y11.200 F10000
G1 X0.100 Y11.100 F10000
G1 X0.100 Y11.000 F10000
G1 X0.100 Y10.900 F10000
G1 X0.100 Y10.800 F10000
G1 X0.100 Y10.700 F10000
G1 X0.100 Y10.600 F10000
G1 X0.100 Y10.500 F10000
G1 X0.100 Y10.400 F10000
G1 X0.100 Y10.300 F10000
G1 X0.100 Y10.200 F10000
G1 X0.100 Y10.100 F10000
G1 X0.100 Y10.000 F10000
G1 X0.100 Y9.900 F10000
G1 X0.100 Y9.800 F10000
G1 X0.100 Y9.700 F10000
G1 X0.100 Y9.600 F10000
G1 X0.100 Y9.500 F10000
G1 X0.100 Y9.400 F10000
G1 X0.100 Y9.300 F10000
G1 X0.100 Y9.200 F10000
G1 X0.100 Y9.100 F10000
G1 X0.100 Y9.000 F10000
G1 X0.100 Y8.900 F10000
G1 X0.100 Y8.800 F10000
G1 X0.100 Y8.700 F10000
G1 X0.100 Y8.600 F10000
G1 X0.100 Y8.500 F10000
G1 X0.100 Y8.400 F10000
G1 X0.100 Y8.300 F10000
G1 X0.100 Y8.200 F10000
G1 X0.100 Y8.100 F10000
G1 X0.100 Y8.000 F10000
G1 X0.100 Y7.900 F10000
G1 X0.100 Y7.800 F10000
G1 X0.100 Y7.700 F10000
G1 X0.100 Y7.600 F10000
G1 X0.100 Y7.500 F10000
G1 X0.100 Y7.400 F10000
G1 X0.100 Y7.300 F10000
G1 X0.100 Y7.200 F10000
G1 X0.100 Y7.100 F10000
G1 X0.100 Y7.000 F10000
G1 X0.100 Y6.900 F10000
G1 X0.100 Y6.800 F10000
G1 X0.100 Y6.700 F10000
G1 X0.100 Y6.600 F10000
G1 X0.100 Y6.500 F10000
G1 X0.100 Y6.400 F10000
G1 X0.100 Y6.300 F10000
G1 X0.100 Y6.200 F10000
G1 X0.100 Y6.100 F10000
G1 X0.100 Y6.000 F10000
G1 X0.100 Y5.900 F10000
G1 X0.100 Y5.800 F10000
G1 X0.100 Y5.700 F10000
G1 X0.100 Y5.600 F10000
G1 X0.100 Y5.500 F10000
G1 X0.100 Y5.400 F10000
G1 X0.100 Y5.300 F10000
G1 X0.100 Y5.200 F10000
G1 X0.100 Y5.100 F10000
G1 X0.100 Y5.000 F10000
G1 X0.100 Y4.900 F10000
G1 X0.100 Y4.800 F10000
G1 X0.100 Y4.700 F10000
G1 X0.100 Y4.600 F10000
G1 X0.100 Y4.500 F10000
G1 X0.100 Y4.400 F10000
G1 X0.100 Y4.300 F10000
G1 X0.100 Y4.200 F10000
G1 X0.100 Y4.100 F10000
G1 X0.100 Y4.000 F10000
G1 X0.100 Y3.900 F10000
G1 X0.100 Y3.800 F10000
G1 X0.100 Y3.700 F10000
G1 X0.100 Y3.600 F10000
G1 X0.100 Y3.500 F10000
G1 X0.100 Y3.400 F10000
G1 X0.100 Y3.300 F10000
G1 X0.100 Y3.200 F10000
G1 X0.100 Y3.100 F10000
G1 X0.100 Y3.000 F10000
G1 X0.100 Y2.900 F10000
G1 X0.100 Y2.800 F10000
G1 X0.100 Y2.700 F10000
G1 X0.100 Y2.600 F10000
G1 X0.100 Y2.500 F10000
G1 X0.100 Y2.400 F10000
G1 X0.100 Y2.300 F10000
G1 X0.100 Y2.200 F10000
G1 X0.100 Y2.100 F10000
G1 X0.100 Y2.000 F10000
G1 X0.100 Y1.900 F10000
G1 X0.100 Y1.800 F10000
G1 X0.100 Y1.700 F10000
G1 X0.100 Y1.600 F10000
G1 X0.100 Y1.500 F10000
G1 X0.100 Y1.400 F10000
G1 X0.100 Y1.300 F10000
G1 X0.100 Y1.200 F10000
G1 X0.100 Y1.100 F10000
G1 X0.100 Y1.000 F10000
G1 X0.100 Y0.900 F10000
G1 X0.100 Y0.800 F10000
G1 X0.100 Y0.700 F10000
G1 X0.100 Y0.600 F10000
G1 X0.100 Y0.500 F10000
G1 X0.100 Y0.400 F10000
G1 X0.100 Y0.300 F10000
G1 X0.100 Y0.200 F10000
G1 X0.100 Y0.100 F10000
G1 X0.100 Y0.000 F10000
S0
G0 X0.200 Y0.000
G1 X0.200 Y0.000 F10000
G1 X0.200 Y0.100 F10000
G1 X0.200 Y0.200 F10000
G1 X0.200 Y0.300 F10000
G1 X0.200 Y0.400 F10000
G1 X0.200 Y0.500 F10000
G1 X0.200 Y0.600 F10000
G1 X0.200 Y0.700 F10000
G1 X0.200 Y0.800 F10000
G1 X0.200 Y0.900 F10000
G1 X0.200 Y1.000 F10000
G1 X0.200 Y1.100 F10000
G1 X0.200 Y1.200 F10000
G1 X0.200 Y1.300 F10000
G1 X0.200 Y1.400 F10000
G1 X0.200 Y1.500 F10000
G1 X0.200 Y1.600 F10000
G1 X0.200 Y1.700 F10000
G1 X0.200 Y1.800 F10000
G1 X0.200 Y1.900 F10000
G1 X0.200 Y2.000 F10000
G1 X0.200 Y2.100 F10000
G1 X0.200 Y2.200 F10000
G1 X0.200 Y2.300 F10000
G1 X0.200 Y2.400 F10000
G1 X0.200 Y2.500 F10000
G1 X0.200 Y2.600 F10000
G1 X0.200 Y2.700 F10000
G1 X0.200 Y2.800 F10000
G1 X0.200 Y2.900 F10000
G1 X0.200 Y3.000 F10000
G1 X0.200 Y3.100 F10000
G1 X0.200 Y3.200 F10000
G1 X0.200 Y3.300 F10000
G1 X0.200 Y3.400 F10000
G1 X0.200 Y3.500 F10000
G1 X0.200 Y3.600 F10000
G1 X0.200 Y3.700 F10000
G1 X0.200 Y3.800 F10000
G1 X0.200 Y3.900 F10000
G1 X0.200 Y4.000 F10000
G1 X0.200 Y4.100 F10000
G1 X0.200 Y4.200 F10000
G1 X0.200 Y4.300 F10000
G1 X0.200 Y4.400 F10000
G1 X0.200 Y4.500 F10000
G1 X0.200 Y4.600 F10000
G1 X0.200 Y4.700 F10000
G1 X0.200 Y4.800 F10000
G1 X0.200 Y4.900 F10000
G1 X0.200 Y5.000 F10000
G1 X0.200 Y5.100 F10000
G1 X0.200 Y5.200 F10000
G1 X0.200 Y5.300 F10000
G1 X0.200 Y5.400 F10000
G1 X0.200 Y5.500 F10000
G1 X0.200 Y5.600 F10000
G1 X0.200 Y5.700 F10000
G1 X0.200 Y5.800 F10000
G1 X0.200 Y5.900 F10000
G1 X0.200 Y6.000 F10000
G1 X0.200 Y6.100 F10000
G1 X0.200 Y6.200 F10000
G1 X0.200 Y6.300 F10000
G1 X0.200 Y6.400 F10000
G1 X0.200 Y6.500 F10000
G1 X0.200 Y6.600 F10000
G1 X0.200 Y6.700 F10000
G1 X0.200 Y6.800 F10000
G1 X0.200 Y6.900 F10000
G1 X0.200 Y7.000 F10000
G1 X0.200 Y7.100 F10000
G1 X0.200 Y7.200 F10000
G1 X0.200 Y7.300 F10000
G1 X0.200 Y7.400 F10000
G1 X0.200 Y7.500 F10000
G1 X0.200 Y7.600 F10000
G1 X0.200 Y7.700 F10000
G1 X0.200 Y7.800 F10000
G1 X0.200 Y7.900 F10000
G1 X0.200 Y8.000 F10000
G1 X0.200 Y8.100 F10000
G1 X0.200 Y8.200 F10000
G1 X0.200 Y8.300 F10000
G1 X0.200 Y8.400 F10000
G1 X0.200 Y8.500 F10000
G1 X0.200 Y8.600 F10000
G1 X0.200 Y8.700 F10000
G1 X0.200 Y8.800 F10000
G1 X0.200 Y8.900 F10000
G1 X0.200 Y9.000 F10000
G1 X0.200 Y9.100 F10000
G1 X0.200 Y9.200 F10000
G1 X0.200 Y9.300 F10000
G1 X0.200 Y9.400 F10000
G1 X0.200 Y9.500 F10000
G1 X0.200 Y9.600 F10000
G1 X0.200 Y9.700 F10000
G1 X0.200 Y9.800 F10000
G1 X0.200 Y9.900 F10000
G1 X0.200 Y10.000 F10000
G1 X0.200 Y10.100 F10000
G1 X0.200 Y10.200 F10000
G1 X0.200 Y10.300 F10000
G1 X0.200 Y10.400 F10000
G1 X0.200 Y10.500 F10000
G1 X0.200 Y10.600 F10000
G1 X0.200 Y10.700 F10000
G1 X0.200 Y10.800 F10000
G1 X0.200 Y10.900 F10000
G1 X0.200 Y11.000 F10000
G1 X0.200 Y11.100 F10000
G1 X0.200 Y11.200 F10000
G1 X0.200 Y11.300 F10000
G1 X0.200 Y11.400 F10000
G1 X0.200 Y11.500 F10000
G1 X0.200 Y11.600 F10000
G1 X0.200 Y11.700 F10000
G1 X0.200 Y11.800 F10000
G1 X0.200 Y11.900 F10000
G1 X0.200 Y12.000 F10000
G1 X0.200 Y12.100 F10000
G1 X0.200 Y12.200 F10000
G1 X0.200 Y12.300 F10000
G1 X0.200 Y12.400 F10000
G1 X0.200 Y12.500 F10000
G1 X0.200 Y12.600 F10000
G1 X0.200 Y12.700 F10000
G1 X0.200 Y12.800 F10000
G1 X0.200 Y12.900 F10000
G1 X0.200 Y13.000 F10000
G1 X0.200 Y13.100 F10000
G1 X0.200 Y13.200 F10000
G1 X0.200 Y13.300 F10000
G1 X0.200 Y13.400 F10000
G1 X0.200 Y13.500 F10000
G1 X0.200 Y13.600 F10000
G1 X0.200 Y13.700 F10000
G1 X0.200 Y13.800 F10000
G1 X0.200 Y13.900 F10000
G1 X0.200 Y14.000 F10000
G1 X0.200 Y14.100 F10000
G1 X0.200 Y14.200 F10000
G1 X0.200 Y14.300 F10000
G1 X0.200 Y14.400 F10000
G1 X0.200 Y14.500 F10000
G1 X0.200 Y14.600 F10000
G1 X0.200 Y14.700 F10000
G1 X0.200 Y14.800 F10000
G1 X0.200 Y14.900 F10000
G1 X0.200 Y15.000 F10000
G1 X0.200 Y15.100 F10000
G1 X0.200 Y15.200 F10000
G1 X0.200 Y15.300 F10000
G1 X0.200 Y15.400 F10000
G1 X0.200 Y15.500 F10000
G1 X0.200 Y15.600 F10000
G1 X0.200 Y15.700 F10000
G1 X0.200 Y15.800 F10000
G1 X0.200 Y15.900 F10000
S0
G0 X0.300 Y15.900
G1 X0.300 Y15.900 F10000
G1 X0.300 Y15.800 F10000
G1 X0.300 Y15.700 F10000
G1 X0.300 Y15.600 F10000
G1 X0.300 Y15.500 F10000
G1 X0.300 Y15.400 F10000
G1 X0.300 Y15.300 F10000
G1 X0.300 Y15.200 F10000
G1 X0.300 Y15.100 F10000
G1 X0.300 Y15.000 F10000
G1 X0.300 Y14.900 F10000
G1 X0.300 Y14.800 F10000
G1 X0.300 Y14.700 F10000
G1 X0.300 Y14.600 F10000
G1 X0.300 Y14.500 F10000
G1 X0.300 Y14.400 F10000
G1 X0.300 Y14.300 F10000
G1 X0.300 Y14.200 F10000
G1 X0.300 Y14.100 F10000
G1 X0.300 Y14.000 F10000
G1 X0.300 Y13.900 F10000
G1 X0.300 Y13.800 F10000
G1 X0.300 Y13.700 F10000
G1 X0.300 Y13.600 F10000
G1 X0.300 Y13.500 F10000
G1 X0.300 Y13.400 F10000
G1 X0.300 Y13.300 F10000
G1 X0.300 Y13.200 F10000
G1 X0.300 Y13.100 F10000
G1 X0.300 Y13.000 F10000
G1 X0.300 Y12.900 F10000
G1 X0.300 Y12.800 F10000
G1 X0.300 Y12.700 F10000
G1 X0.300 Y12.600 F10000
G1 X0.300 Y12.500 F10000
S4
G1 X0.300 Y12.400 F9965
S8
G1 X0.300 Y12.300 F9929
S12
G1 X0.300 Y12.200 F9894
S16
G1 X0.300 Y12.100 F9859
S20
G1 X0.300 Y12.000 F9824
S24
G1 X0.300 Y11.900 F9788
G1 X0.300 Y11.800 F9788
G1 X0.300 Y11.700 F9788
G1 X0.300 Y11.600 F9788
G1 X0.300 Y11.500 F9788
S47
G1 X0.300 Y11.400 F9576
S71
G1 X0.300 Y11.300 F9365
S90
G1 X0.300 Y11.200 F9188
S106
G1 X0.300 Y11.100 F9047
S114
G1 X0.300 Y11.000 F8976
S122
G1 X0.300 Y10.900 F8906
S125
G1 X0.300 Y10.800 F8871
S122
G1 X0.300 Y10.700 F8906
S114
G1 X0.300 Y10.600 F8976
S102
G1 X0.300 Y10.500 F9082
S82
G1 X0.300 Y10.400 F9259
S63
G1 X0.300 Y10.300 F9435
S39
G1 X0.300 Y10.200 F9647
S20
G1 X0.300 Y10.100 F9824
S24
G1 X0.300 Y10.000 F9788
S27
G1 X0.300 Y9.900 F9753
S24
G1 X0.300 Y9.800 F9788
G1 X0.300 Y9.700 F9788
S27
G1 X0.300 Y9.600 F9753
S55
G1 X0.300 Y9.500 F9506
S75
G1 X0.300 Y9.400 F9329
S94
G1 X0.300 Y9.300 F9153
S110
G1 X0.300 Y9.200 F9012
S118
G1 X0.300 Y9.100 F8941
S122
G1 X0.300 Y9.000 F8906
G1 X0.300 Y8.900 F8906
S118
G1 X0.300 Y8.800 F8941
S110
G1 X0.300 Y8.700 F9012
S98
G1 X0.300 Y8.600 F9118
S78
G1 X0.300 Y8.500 F9294
S59
G1 X0.300 Y8.400 F9471
S35
G1 X0.300 Y8.300 F9682
S24
G1 X0.300 Y8.200 F9788
G1 X0.300 Y8.100 F9788
S27
G1 X0.300 Y8.000 F9753
S24
G1 X0.300 Y7.900 F9788
G1 X0.300 Y7.800 F9788
S35
G1 X0.300 Y7.700 F9682
S59
G1 X0.300 Y7.600 F9471
S78
G1 X0.300 Y7.500 F9294
S98
G1 X0.300 Y7.400 F9118
S110
G1 X0.300 Y7.300 F9012
S118
G1 X0.300 Y7.200 F8941
S122
G1 X0.300 Y7.100 F8906
G1 X0.300 Y7.000 F8906
S118
G1 X0.300 Y6.900 F8941
S110
G1 X0.300 Y6.800 F9012
S94
G1 X0.300 Y6.700 F9153
S75
G1 X0.300 Y6.600 F9329
S55
G1 X0.300 Y6.500 F9506
S27
G1 X0.300 Y6.400 F9753
S24
G1 X0.300 Y6.300 F9788
G1 X0.300 Y6.200 F9788
S27
G1 X0.300 Y6.100 F9753
S24
G1 X0.300 Y6.000 F9788
S20
G1 X0.300 Y5.900 F9824
S39
G1 X0.300 Y5.800 F9647
S63
G1 X0.300 Y5.700 F9435
S82
G1 X0.300 Y5.600 F9259
S102
G1 X0.300 Y5.500 F9082
S114
G1 X0.300 Y5.400 F8976
S122
G1 X0.300 Y5.300 F8906
S125
G1 X0.300 Y5.200 F8871
S122
G1 X0.300 Y5.100 F8906
S114
G1 X0.300 Y5.000 F8976
S106
G1 X0.300 Y4.900 F9047
S90
G1 X0.300 Y4.800 F9188
S71
G1 X0.300 Y4.700 F9365
S47
G1 X0.300 Y4.600 F9576
S24
G1 X0.300 Y4.500 F9788
G1 X0.300 Y4.400 F9788
G1 X0.300 Y4.300 F9788
G1 X0.300 Y4.200 F9788
G1 X0.300 Y4.100 F9788
S20
G1 X0.300 Y4.000 F9824
S16
G1 X0.300 Y3.900 F9859
S12
G1 X0.300 Y3.800 F9894
S8
G1 X0.300 Y3.700 F9929
S4
G1 X0.300 Y3.600 F9965
S0
G1 X0.300 Y3.500 F10000
G1 X0.300 Y3.400 F10000
G1 X0.300 Y3.300 F10000
G1 X0.300 Y3.200 F10000
G1 X0.300 Y3.100 F10000
G1 X0.300 Y3.000 F10000
G1 X0.300 Y2.900 F10000
G1 X0.300 Y2.800 F10000
G1 X0.300 Y2.700 F10000
G1 X0.300 Y2.600 F10000
G1 X0.300 Y2.500 F10000
G1 X0.300 Y2.400 F10000
G1 X0.300 Y2.300 F10000
G1 X0.300 Y2.200 F10000
G1 X0.300 Y2.100 F10000
G1 X0.300 Y2.000 F10000
G1 X0.300 Y1.900 F10000
G1 X0.300 Y1.800 F10000
G1 X0.300 Y1.700 F10000
G1 X0.300 Y1.600 F10000
G1 X0.300 Y1.500 F10000
G1 X0.300 Y1.400 F10000
G1 X0.300 Y1.300 F10000
G1 X0.300 Y1.200 F10000
G1 X0.300 Y1.100 F10000
G1 X0.300 Y1.000 F10000
G1 X0.300 Y0.900 F10000
G1 X0.300 Y0.800 F10000
G1 X0.300 Y0.700 F10000
G1 X0.300 Y0.600 F10000
G1 X0.300 Y0.500 F10000
